Desktop/project_createx/public/images/decor/lines.svg

<svg xmlns="http://www.w3.org/2000/svg" width="1145" height="967" fill="none"><g stroke="#00F0B5" opacity=".4"><path d="M744.604 824.046c7.612-7.001 15.572-14.07 23.656-21.249 26.11-23.188 53.509-47.52 74.613-74.377 27.62-35.15 44.38-74.536 33.303-121.204-10.754-45.31-46.018-68.528-87.733-87.821-10.425-4.822-21.244-9.394-32.178-14.005l-.771-.326c-10.679-4.503-21.459-9.049-32.067-13.902-21.727-9.937-42.756-21.168-60.765-35.978-19.742-16.235-36.628-37.446-52.326-60.073-7.851-11.315-15.408-22.991-22.877-34.58l-1.474-2.288c-6.97-10.816-13.874-21.532-20.887-31.794-30.056-43.979-61.966-79.391-109.051-78.52-50.238.929-96.161 29.582-130.995 71.19-34.831 41.606-58.524 96.111-64.316 148.619-4.998 45.304 17.968 82.819 48.251 119.411 9.14 11.044 18.925 21.981 28.8 33.018 6.493 7.257 13.024 14.556 19.436 21.959 16.15 18.642 31.508 37.897 43.445 58.608 11.446 19.859 19.935 42.246 27.508 65.09 3.001 9.053 5.856 18.171 8.693 27.233 4.33 13.828 8.619 27.527 13.326 40.672 15.578 43.506 35.612 80.573 76.284 95.136 42.331 15.158 81.097 3.468 117.19-19.295 29.422-18.555 57.005-44.426 83.24-69.033 5.966-5.596 11.862-11.127 17.695-16.491Z"/><path d="M707.841 768.321c5.996-5.515 12.266-11.083 18.632-16.736 20.556-18.255 42.118-37.404 58.728-58.542 21.735-27.661 34.913-58.64 26.202-95.34-8.455-35.623-36.178-53.885-69.016-69.073-8.207-3.795-16.724-7.395-25.332-11.026l-.611-.257c-8.406-3.545-16.895-7.125-25.248-10.946-17.109-7.825-33.676-16.673-47.866-28.342-15.555-12.792-28.857-29.502-41.219-47.32-6.182-8.91-12.133-18.104-18.014-27.229l-1.16-1.8c-5.487-8.517-10.923-16.953-16.444-25.032-23.666-34.629-48.76-62.459-85.769-61.775-39.513.731-75.644 23.268-103.058 56.014-27.411 32.742-46.057 75.637-50.615 116.958-3.93 35.624 14.127 65.132 37.966 93.939 7.196 8.694 14.897 17.302 22.671 25.99 5.112 5.713 10.255 11.462 15.306 17.293 12.717 14.68 24.815 29.846 34.218 46.162 9.017 15.645 15.704 33.279 21.667 51.267 2.364 7.132 4.612 14.312 6.846 21.447 3.409 10.885 6.785 21.667 10.49 32.015 12.264 34.251 28.024 63.391 59.996 74.84 33.285 11.919 63.772 2.731 92.175-15.182 23.156-14.603 44.863-34.964 65.519-54.338 4.699-4.406 9.342-8.762 13.936-12.987Z"/><path d="M681.284 728.058c4.829-4.441 9.877-8.924 15.002-13.475 16.543-14.692 33.888-30.095 47.25-47.101 17.484-22.25 28.073-47.154 21.071-76.653-6.794-28.624-29.067-43.305-55.493-55.527-6.603-3.053-13.456-5.95-20.385-8.872l-.488-.206c-6.767-2.854-13.601-5.736-20.327-8.812-13.773-6.3-27.116-13.425-38.546-22.825-12.53-10.304-23.243-23.762-33.194-38.105-4.977-7.173-9.767-14.574-14.501-21.918l-.933-1.448c-4.417-6.856-8.791-13.645-13.234-20.146-19.049-27.873-39.218-50.226-68.947-49.676-31.764.588-60.82 18.705-82.873 45.047-22.05 26.339-37.049 60.846-40.716 94.083-3.158 28.631 11.351 52.353 30.536 75.535 5.79 6.996 11.986 13.921 18.241 20.912 4.115 4.599 8.255 9.226 12.323 13.922 10.236 11.817 19.978 24.029 27.551 37.169 7.262 12.601 12.647 26.801 17.446 41.28 1.904 5.744 3.714 11.524 5.512 17.267 2.743 8.759 5.459 17.432 8.44 25.76 9.871 27.564 22.542 50.977 48.229 60.175 26.749 9.579 51.254 2.199 74.1-12.209 18.629-11.748 36.092-28.128 52.716-43.72 3.782-3.548 7.521-7.054 11.22-10.457Z"/></g></svg>

<svg width="1145" height="967" viewBox="0 0 1145 967" fill="none" xmlns="http://www.w3.org/2000/svg">
<g opacity="0.4">
<path d="M744.604 824.046C752.216 817.045 760.176 809.976 768.26 802.797C794.37 779.609 821.769 755.277 842.873 728.42C870.493 693.27 887.253 653.884 876.176 607.216C865.422 561.906 830.158 538.688 788.443 519.395C778.018 514.573 767.199 510.001 756.265 505.39L755.494 505.064C744.815 500.561 734.035 496.015 723.427 491.162C701.7 481.225 680.671 469.994 662.662 455.184C642.92 438.949 626.034 417.738 610.336 395.111C602.485 383.796 594.928 372.12 587.459 360.531C586.967 359.768 586.476 359.005 585.985 358.243C579.015 347.427 572.111 336.711 565.098 326.449C535.042 282.47 503.132 247.058 456.047 247.929C405.809 248.858 359.886 277.511 325.052 319.119C290.221 360.725 266.528 415.23 260.736 467.738C255.738 513.042 278.704 550.557 308.987 587.149C318.127 598.193 327.912 609.13 337.787 620.167C344.28 627.424 350.811 634.723 357.223 642.126C373.373 660.768 388.731 680.023 400.668 700.734C412.114 720.593 420.603 742.98 428.176 765.824C431.177 774.877 434.032 783.995 436.869 793.057C441.199 806.885 445.488 820.584 450.195 833.729C465.773 877.235 485.807 914.302 526.479 928.865C568.81 944.023 607.576 932.333 643.669 909.57C673.091 891.015 700.674 865.144 726.909 840.537C732.875 834.941 738.771 829.41 744.604 824.046Z" stroke="#00F0B5"/>
<path d="M707.841 768.321C713.837 762.806 720.107 757.238 726.473 751.585C747.029 733.33 768.591 714.181 785.201 693.043C806.936 665.382 820.114 634.403 811.403 597.703C802.948 562.08 775.225 543.818 742.387 528.63C734.18 524.835 725.663 521.235 717.055 517.604L716.444 517.347C708.038 513.802 699.549 510.222 691.196 506.401C674.087 498.576 657.52 489.728 643.33 478.059C627.775 465.267 614.473 448.557 602.111 430.739C595.929 421.829 589.978 412.635 584.097 403.51C583.71 402.91 583.324 402.309 582.937 401.71C577.45 393.193 572.014 384.757 566.493 376.678C542.827 342.049 517.733 314.219 480.724 314.903C441.211 315.634 405.08 338.171 377.666 370.917C350.255 403.659 331.609 446.554 327.051 487.875C323.121 523.499 341.178 553.007 365.017 581.814C372.213 590.508 379.914 599.116 387.688 607.804C392.8 613.517 397.943 619.266 402.994 625.097C415.711 639.777 427.809 654.943 437.212 671.259C446.229 686.904 452.916 704.538 458.879 722.526C461.243 729.658 463.491 736.838 465.725 743.973C469.134 754.858 472.51 765.64 476.215 775.988C488.479 810.239 504.239 839.379 536.211 850.828C569.496 862.747 599.983 853.559 628.386 835.646C651.542 821.043 673.249 800.682 693.905 781.308C698.604 776.902 703.247 772.546 707.841 768.321Z" stroke="#00F0B5"/>
<path d="M681.284 728.058C686.113 723.617 691.161 719.134 696.286 714.583C712.829 699.891 730.174 684.488 743.536 667.482C761.02 645.232 771.609 620.328 764.607 590.829C757.813 562.205 735.54 547.524 709.114 535.302C702.511 532.249 695.658 529.352 688.729 526.43L688.241 526.224C681.474 523.37 674.64 520.488 667.914 517.412C654.141 511.112 640.798 503.987 629.368 494.587C616.838 484.283 606.125 470.825 596.174 456.482C591.197 449.309 586.407 441.908 581.673 434.564C581.362 434.081 581.051 433.598 580.74 433.116C576.323 426.26 571.949 419.471 567.506 412.97C548.457 385.097 528.288 362.744 498.559 363.294C466.795 363.882 437.739 381.999 415.686 408.341C393.636 434.68 378.637 469.187 374.97 502.424C371.812 531.055 386.321 554.777 405.506 577.959C411.296 584.955 417.492 591.88 423.747 598.871C427.862 603.47 432.002 608.097 436.07 612.793C446.306 624.61 456.048 636.822 463.621 649.962C470.883 662.563 476.268 676.763 481.067 691.242C482.971 696.986 484.781 702.766 486.579 708.509C489.322 717.268 492.038 725.941 495.019 734.269C504.89 761.833 517.561 785.246 543.248 794.444C569.997 804.023 594.502 796.643 617.348 782.235C635.977 770.487 653.44 754.107 670.064 738.515C673.846 734.967 677.585 731.461 681.284 728.058Z" stroke="#00F0B5"/>
</g>
</svg>
